Adwaita++-Light/panel/24/pcloud-pause.svg

<svg height="24" width="24" xmlns="http://www.w3.org/2000/svg">
  <g fill="#444">
    <path d="m12.5 5.0002371a6.5 6.5 0 0 0 -6.0097656 4.03125 5 5 0 0 0 -4.4902344 4.9687499 5 5 0 0 0 5 5h6.423828a5 5 0 0 1 -.423828-2 5 5 0 0 1 .113281-1.046875 4.5 4.5 0 0 1 -.613281.046875 4.5 4.5 0 0 1 -4.5-4.5 4.5 4.5 0 0 1 4.5-4.4999999 4.5 4.5 0 0 1 4.5 4.4999999 4.5 4.5 0 0 1 -.048828.617188 5 5 0 0 1 1.048828-.117188 5 5 0 0 1 2.490234.669922 3 3 0 0 0 .509766-1.669922 3 3 0 0 0 -3-2.9999999 3 3 0 0 0 -.02344 0 6.5 6.5 0 0 0 -5.476562-3zm0 3a3.5 3.5 0 0 0 -3.5 3.4999999 3.5 3.5 0 0 0 3.5 3.5 3.5 3.5 0 0 0 .990234-.144531 5 5 0 0 1 2.365235-2.365235 3.5 3.5 0 0 0 .144531-.990234 3.5 3.5 0 0 0 -3.5-3.4999999zm-1.5 1h1 1.5a1.5 1.5 0 0 1 1.5 1.4999999 1.5 1.5 0 0 1 -1.5 1.5h-1.5v2h-1v-2zm1 .9999999v1h1.5a.5.5 0 0 0 .5-.5.5.5 0 0 0 -.5-.5z" opacity=".3"/>
    <path d="m18.279297 13.008049c-.768533-.054321-1.561885.113119-2.279297.527344-1.9132 1.1046-2.567391 3.551644-1.462891 5.464844 1.1045 1.9131 3.549791 2.567491 5.462891 1.462891 1.9132-1.1046 2.569344-3.549691 1.464844-5.462891-.690313-1.195688-1.904658-1.901651-3.185547-1.992188zm-2.279297 1.992188h1v4h-1zm3 0h1v4h-1z"/>
  </g>
</svg>

<svg xmlns="http://www.w3.org/2000/svg" width="24" height="24" version="1.1">
 <defs>
  <style id="current-color-scheme" type="text/css">
   .ColorScheme-Text { color:#444444; } .ColorScheme-Highlight { color:#4285f4; }
  </style>
 </defs>
 <path style="opacity:0.3;fill:currentColor" class="ColorScheme-Text" d="M 12.5,5.0002371 A 6.5,6.5 0 0 0 6.4902344,9.0314871 5,5 0 0 0 2,14.000237 a 5,5 0 0 0 5,5 h 6.423828 A 5,5 0 0 1 13,17.000237 5,5 0 0 1 13.113281,15.953362 4.5,4.5 0 0 1 12.5,16.000237 4.5,4.5 0 0 1 8,11.500237 4.5,4.5 0 0 1 12.5,7.0002371 4.5,4.5 0 0 1 17,11.500237 4.5,4.5 0 0 1 16.951172,12.117425 5,5 0 0 1 18,12.000237 5,5 0 0 1 20.490234,12.670159 3,3 0 0 0 21,11.000237 3,3 0 0 0 18,8.0002371 a 3,3 0 0 0 -0.02344,0 6.5,6.5 0 0 0 -5.476562,-3 z m 0,3 A 3.5,3.5 0 0 0 9,11.500237 a 3.5,3.5 0 0 0 3.5,3.5 3.5,3.5 0 0 0 0.990234,-0.144531 5,5 0 0 1 2.365235,-2.365235 A 3.5,3.5 0 0 0 16,11.500237 3.5,3.5 0 0 0 12.5,8.0002371 Z m -1.5,1 h 1 1.5 a 1.5,1.5 0 0 1 1.5,1.4999999 1.5,1.5 0 0 1 -1.5,1.5 H 12 v 2 h -1 v -2 z m 1,0.9999999 v 1 h 1.5 a 0.5,0.5 0 0 0 0.5,-0.5 0.5,0.5 0 0 0 -0.5,-0.5 z"/>
 <path style="fill:currentColor" class="ColorScheme-Text" d="M 18.279297,13.008049 C 17.510764,12.953728 16.717412,13.121168 16,13.535393 c -1.9132,1.1046 -2.567391,3.551644 -1.462891,5.464844 1.1045,1.9131 3.549791,2.567491 5.462891,1.462891 1.9132,-1.1046 2.569344,-3.549691 1.464844,-5.462891 -0.690313,-1.195688 -1.904658,-1.901651 -3.185547,-1.992188 z M 16,15.000237 h 1 v 4 h -1 z m 3,0 h 1 v 4 h -1 z"/>
</svg>
